static/stripes1.svg

<svg height="120" viewBox="0 0 1440 120" width="1440" xmlns="http://www.w3.org/2000/svg"><g fill="#fff" fill-rule="evenodd" opacity=".078261" transform="translate(-2290)"><path d="m99.4048241 0-69.2820323 120h-30.02310937l69.28203227-120zm59.9999999 0-69.2820322 120h-30.0231094l69.2820326-120zm60 0-69.282032 120h-30.02311l69.282033-120zm60 0-69.282032 120h-30.02311l69.282033-120zm60 0-69.282032 120h-30.02311l69.282033-120zm60 0-69.282032 120h-30.02311l69.282033-120zm60 0-69.282032 120h-30.02311l69.282033-120zm60 0-69.282032 120h-30.02311l69.282033-120zm60 0-69.282032 120h-30.02311l69.282033-120zm60 0-69.282032 120h-30.02311l69.282033-120zm60 0-69.282032 120h-30.02311l69.282033-120zm60 0-69.282032 120h-30.02311l69.282033-120zm60 0-69.282032 120h-30.02311l69.282033-120zm60 0-69.282032 120h-30.02311l69.282033-120zm60 0-69.282032 120h-30.02311l69.282033-120zm60 0-69.282032 120h-30.02311l69.282033-120zm59.999996 0-69.282028 120h-30.02311l69.282028-120zm60 0-69.28203 120h-30.02311l69.28203-120zm60 0-69.28203 120h-30.02311l69.28203-120zm60 0-69.28203 120h-30.02311l69.28203-120zm60 0-69.28203 120h-30.02311l69.28203-120zm60 0-69.28203 120h-30.02311l69.28203-120zm60 0-69.28203 120h-30.02311l69.28203-120zm60 0-69.28203 120h-30.02311l69.28203-120zm60 0-69.28203 120h-30.02311l69.28203-120zm60 0-69.28203 120h-30.02311l69.28203-120zm60 0-69.28203 120h-30.02311l69.28203-120zm61 0-69.28203 120h-30.02311l69.28203-120zm60 0-69.28203 120h-30.02311l69.28203-120zm60 0-69.28203 120h-30.02311l69.28203-120zm60 0-69.28203 120h-30.02311l69.28203-120zm60 0-69.28203 120h-30.02311l69.28203-120zm60 0-69.28203 120h-30.02311l69.28203-120zm60 0-69.28203 120h-30.02311l69.28203-120zm60 0-69.28203 120h-30.02311l69.28203-120zm60 0-69.28203 120h-30.02311l69.28203-120zm60 0-69.28203 120h-30.02311l69.28203-120zm60 0-69.28203 120h-30.02311l69.28203-120zm60 0-69.28203 120h-30.02311l69.28203-120zm60 0-69.28203 120h-30.02311l69.28203-120zm60 0-69.28203 120h-30.02311l69.28203-120zm60 0-69.28203 120h-30.02311l69.28203-120zm60 0-69.28203 120h-30.02311l69.28203-120zm60 0-69.28203 120h-30.02311l69.28203-120zm60 0-69.28203 120h-30.02311l69.28203-120zm60 0-69.28203 120h-30.02311l69.28203-120zm60 0-69.28203 120h-30.02311l69.28203-120zm60 0-69.28203 120h-30.02311l69.28203-120zm60 0-69.28203 120h-30.02311l69.28203-120zm60 0-69.28203 120h-30.02311l69.28203-120zm60 0-69.28203 120h-30.02311l69.28203-120zm60 0-69.28203 120h-30.02311l69.28203-120zm60 0-69.28203 120h-30.02311l69.28203-120zm60 0-69.28203 120h-30.02311l69.28203-120z"/><path d="m3340.30514 0-69.28203 120h-30.02311l69.28203-120zm60 0-69.28203 120h-30.02311l69.28203-120zm60 0-69.28203 120h-30.02311l69.28203-120zm60 0-69.28203 120h-30.02311l69.28203-120zm60 0-69.28203 120h-30.02311l69.28203-120zm60 0-69.28203 120h-30.02311l69.28203-120zm60 0-69.28203 120h-30.02311l69.28203-120zm60 0-69.28203 120h-30.02311l69.28203-120zm60 0-69.28203 120h-30.02311l69.28203-120zm60 0-69.28203 120h-30.02311l69.28203-120zm60 0-69.28203 120h-30.02311l69.28203-120zm60 0-69.28203 120h-30.02311l69.28203-120zm60 0-69.28203 120h-30.02311l69.28203-120zm60 0-69.28203 120h-30.02311l69.28203-120zm60 0-69.28203 120h-30.02311l69.28203-120zm60 0-69.28203 120h-30.02311l69.28203-120zm60 0-69.28203 120h-30.02311l69.28203-120zm60 0-69.28203 120h-30.02311l69.28203-120zm60 0-69.28203 120h-30.02311l69.28203-120zm60 0-69.28203 120h-30.02311l69.28203-120zm60 0-69.28203 120h-30.02311l69.28203-120zm60 0-69.28203 120h-30.02311l69.28203-120zm60 0-69.28203 120h-30.02311l69.28203-120zm60 0-69.28203 120h-30.02311l69.28203-120zm60 0-69.28203 120h-30.02311l69.28203-120zm60 0-69.28203 120h-30.02311l69.28203-120zm60 0-69.28203 120h-30.02311l69.28203-120zm61 0-69.28203 120h-30.02311l69.28203-120zm60 0-69.28203 120h-30.02311l69.28203-120zm60 0-69.28203 120h-30.02311l69.28203-120zm60 0-69.28203 120h-30.02311l69.28203-120zm60 0-69.28203 120h-30.02311l69.28203-120zm60 0-69.28203 120h-30.02311l69.28203-120zm60 0-69.28203 120h-30.02311l69.28203-120zm60 0-69.28203 120h-30.02311l69.28203-120zm60 0-69.28203 120h-30.02311l69.28203-120zm60 0-69.28203 120h-30.02311l69.28203-120zm60 0-69.28203 120h-30.02311l69.28203-120zm60 0-69.28203 120h-30.02311l69.28203-120zm60 0-69.28203 120h-30.02311l69.28203-120zm60 0-69.28203 120h-30.02311l69.28203-120zm60 0-69.28203 120h-30.02311l69.28203-120zm60 0-69.28203 120h-30.02311l69.28203-120zm60 0-69.28203 120h-30.02311l69.28203-120zm60 0-69.28203 120h-30.02311l69.28203-120zm60 0-69.28203 120h-30.02311l69.28203-120zm60 0-69.28203 120h-30.02311l69.28203-120zm60 0-69.28203 120h-30.02311l69.28203-120zm60 0-69.28203 120h-30.02311l69.28203-120zm60 0-69.28203 120h-30.02311l69.28203-120zm60 0-69.28203 120h-30.02311l69.28203-120zm60 0-69.28203 120h-30.02311l69.28203-120zm60 0-69.28203 120h-30.02311l69.28203-120zm60 0-69.28203 120h-30.02311l69.28203-120z"/></g></svg>

<?xml version="1.0" encoding="UTF-8"?>
<svg width="1440px" height="120px" viewBox="0 0 1440 120" version="1.1" xmlns="http://www.w3.org/2000/svg" xmlns:xlink="http://www.w3.org/1999/xlink">
    <!-- Generator: Sketch 42 (36781) - http://www.bohemiancoding.com/sketch -->
    <title>Group</title>
    <desc>Created with Sketch.</desc>
    <defs></defs>
    <g id="Gedankenwerk" stroke="none" stroke-width="1" fill="none" fill-rule="evenodd" opacity="0.0782608711">
        <g transform="translate(0.000000, -510.000000)" id="Intro" fill="#FFFFFF">
            <g transform="translate(-2290.000000, 130.000000)">
                <g id="Group" transform="translate(0.000000, 380.000000)">
                    <path d="M99.4048241,4.26325641e-14 L30.1227918,120 L0.0996824336,120 L69.3817147,2.48689958e-14 L99.4048241,2.84217094e-14 Z M159.404824,3.73034936e-14 L90.1227918,120 L60.0996824,120 L129.381715,2.48689958e-14 L159.404824,2.84217094e-14 Z M219.404824,1.77635684e-14 L150.122792,120 L120.099682,120 L189.381715,2.84217094e-14 L219.404824,2.84217094e-14 Z M279.404824,3.73034936e-14 L210.122792,120 L180.099682,120 L249.381715,1.0658141e-14 L279.404824,2.84217094e-14 Z M339.404824,2.84217094e-14 L270.122792,120 L240.099682,120 L309.381715,1.0658141e-14 L339.404824,2.84217094e-14 Z M399.404824,4.26325641e-14 L330.122792,120 L300.099682,120 L369.381715,3.55271368e-15 L399.404824,2.84217094e-14 Z M459.404824,2.84217094e-14 L390.122792,120 L360.099682,120 L429.381715,4.26325641e-14 L459.404824,2.84217094e-14 Z M519.404824,-3.90798505e-14 L450.122792,120 L420.099682,120 L489.381715,2.13162821e-14 L519.404824,2.84217094e-14 Z M579.404824,5.32907052e-15 L510.122792,120 L480.099682,120 L549.381715,0 L579.404824,2.84217094e-14 Z M639.404824,-1.77635684e-15 L570.122792,120 L540.099682,120 L609.381715,7.46069873e-14 L639.404824,2.84217094e-14 Z M699.404824,1.77635684e-14 L630.122792,120 L600.099682,120 L669.381715,1.77635684e-14 L699.404824,2.84217094e-14 Z M759.404824,-1.77635684e-15 L690.122792,120 L660.099682,120 L729.381715,1.0658141e-14 L759.404824,2.84217094e-14 Z M819.404824,6.39488462e-14 L750.122792,120 L720.099682,120 L789.381715,-1.42108547e-14 L819.404824,2.84217094e-14 Z M879.404824,6.03961325e-14 L810.122792,120 L780.099682,120 L849.381715,7.10542736e-14 L879.404824,2.84217094e-14 Z M939.404824,-5.15143483e-14 L870.122792,120 L840.099682,120 L909.381715,-4.61852778e-14 L939.404824,2.84217094e-14 Z M999.404824,-2.84217094e-14 L930.122792,120 L900.099682,120 L969.381715,2.48689958e-14 L999.404824,2.84217094e-14 Z M1059.40482,-3.01980663e-14 L990.122792,120 L960.099682,120 L1029.38171,2.84217094e-14 L1059.40482,2.84217094e-14 Z M1119.40482,6.75015599e-14 L1050.12279,120 L1020.09968,120 L1089.38171,0 L1119.40482,2.84217094e-14 Z M1179.40482,1.59872116e-14 L1110.12279,120 L1080.09968,120 L1149.38171,3.55271368e-15 L1179.40482,2.84217094e-14 Z M1239.40482,2.13162821e-13 L1170.12279,120 L1140.09968,120 L1209.38171,1.03028697e-13 L1239.40482,2.84217094e-14 Z M1299.40482,1.0658141e-14 L1230.12279,120 L1200.09968,120 L1269.38171,2.0250468e-13 L1299.40482,2.84217094e-14 Z M1359.40482,5.68434189e-14 L1290.12279,120 L1260.09968,120 L1329.38171,1.42108547e-13 L1359.40482,2.84217094e-14 Z M1419.40482,8.52651283e-14 L1350.12279,120 L1320.09968,120 L1389.38171,1.42108547e-13 L1419.40482,2.84217094e-14 Z M1479.40482,1.13686838e-13 L1410.12279,120 L1380.09968,120 L1449.38171,2.0250468e-13 L1479.40482,2.84217094e-14 Z M1539.40482,-7.99360578e-14 L1470.12279,120 L1440.09968,120 L1509.38171,1.81188398e-13 L1539.40482,2.84217094e-14 Z M1599.40482,9.23705556e-14 L1530.12279,120 L1500.09968,120 L1569.38171,1.42108547e-13 L1599.40482,2.84217094e-14 Z M1659.40482,4.08562073e-14 L1590.12279,120 L1560.09968,120 L1629.38171,8.52651283e-14 L1659.40482,2.84217094e-14 Z M1720.40482,2.13162821e-13 L1651.12279,120 L1621.09968,120 L1690.38171,2.27373675e-13 L1720.40482,2.84217094e-14 Z M1780.40482,4.97379915e-14 L1711.12279,120 L1681.09968,120 L1750.38171,1.03028697e-13 L1780.40482,2.84217094e-14 Z M1840.40482,1.03028697e-13 L1771.12279,120 L1741.09968,120 L1810.38171,1.42108547e-13 L1840.40482,2.84217094e-14 Z M1900.40482,6.03961325e-14 L1831.12279,120 L1801.09968,120 L1870.38171,7.46069873e-14 L1900.40482,2.84217094e-14 Z M1960.40482,1.17239551e-13 L1891.12279,120 L1861.09968,120 L1930.38171,1.49213975e-13 L1960.40482,2.84217094e-14 Z M2020.40482,9.23705556e-14 L1951.12279,120 L1921.09968,120 L1990.38171,1.03028697e-13 L2020.40482,2.84217094e-14 Z M2080.40482,-7.99360578e-14 L2011.12279,120 L1981.09968,120 L2050.38171,5.32907052e-14 L2080.40482,2.84217094e-14 Z M2140.40482,-7.46069873e-14 L2071.12279,120 L2041.09968,120 L2110.38171,2.45137244e-13 L2140.40482,2.84217094e-14 Z M2200.40482,3.90798505e-14 L2131.12279,120 L2101.09968,120 L2170.38171,-3.55271368e-14 L2200.40482,2.84217094e-14 Z M2260.40482,6.39488462e-14 L2191.12279,120 L2161.09968,120 L2230.38171,1.56319402e-13 L2260.40482,2.84217094e-14 Z M2320.40482,9.41469125e-14 L2251.12279,120 L2221.09968,120 L2290.38171,1.31450406e-13 L2320.40482,2.84217094e-14 Z M2380.40482,-7.46069873e-14 L2311.12279,120 L2281.09968,120 L2350.38171,1.56319402e-13 L2380.40482,2.84217094e-14 Z M2440.40482,-1.03028697e-13 L2371.12279,120 L2341.09968,120 L2410.38171,5.32907052e-14 L2440.40482,2.84217094e-14 Z M2500.40482,6.39488462e-14 L2431.12279,120 L2401.09968,120 L2470.38171,1.20792265e-13 L2500.40482,2.84217094e-14 Z M2560.40482,-1.03028697e-13 L2491.12279,120 L2461.09968,120 L2530.38171,1.49213975e-13 L2560.40482,2.84217094e-14 Z M2620.40482,-7.46069873e-14 L2551.12279,120 L2521.09968,120 L2590.38171,-7.81597009e-14 L2620.40482,2.84217094e-14 Z M2680.40482,-1.03028697e-13 L2611.12279,120 L2581.09968,120 L2650.38171,-2.45137244e-13 L2680.40482,2.84217094e-14 Z M2740.40482,3.01980663e-14 L2671.12279,120 L2641.09968,120 L2710.38171,-3.55271368e-14 L2740.40482,2.84217094e-14 Z M2800.40482,1.72306613e-13 L2731.12279,120 L2701.09968,120 L2770.38171,5.32907052e-14 L2800.40482,2.84217094e-14 Z M2860.40482,1.91846539e-13 L2791.12279,120 L2761.09968,120 L2830.38171,5.32907052e-14 L2860.40482,2.84217094e-14 Z M2920.40482,9.41469125e-14 L2851.12279,120 L2821.09968,120 L2890.38171,-3.55271368e-14 L2920.40482,2.84217094e-14 Z M2980.40482,9.23705556e-14 L2911.12279,120 L2881.09968,120 L2950.38171,1.10134124e-13 L2980.40482,2.84217094e-14 Z M3040.40482,9.41469125e-14 L2971.12279,120 L2941.09968,120 L3010.38171,-1.52766688e-13 L3040.40482,2.84217094e-14 Z M3100.40482,-2.48689958e-14 L3031.12279,120 L3001.09968,120 L3070.38171,1.20792265e-13 L3100.40482,2.84217094e-14 Z M3160.40482,1.79412041e-13 L3091.12279,120 L3061.09968,120 L3130.38171,5.32907052e-14 L3160.40482,2.84217094e-14 Z M3220.40482,-1.03028697e-13 L3151.12279,120 L3121.09968,120 L3190.38171,1.88293825e-13 L3220.40482,2.84217094e-14 Z M3280.40482,9.23705556e-14 L3211.12279,120 L3181.09968,120 L3250.38171,-1.52766688e-13 L3280.40482,2.84217094e-14 Z" id="Stripes"></path>
                    <path d="M3340.30514,2.7000624e-13 L3271.02311,120 L3241,120 L3310.28203,2.52242671e-13 L3340.30514,2.55795385e-13 Z M3400.30514,2.64677169e-13 L3331.02311,120 L3301,120 L3370.28203,2.52242671e-13 L3400.30514,2.55795385e-13 Z M3460.30514,2.45137244e-13 L3391.02311,120 L3361,120 L3430.28203,2.55795385e-13 L3460.30514,2.55795385e-13 Z M3520.30514,2.64677169e-13 L3451.02311,120 L3421,120 L3490.28203,2.38031816e-13 L3520.30514,2.55795385e-13 Z M3580.30514,2.55795385e-13 L3511.02311,120 L3481,120 L3550.28203,2.38031816e-13 L3580.30514,2.55795385e-13 Z M3640.30514,2.7000624e-13 L3571.02311,120 L3541,120 L3610.28203,2.30926389e-13 L3640.30514,2.55795385e-13 Z M3700.30514,2.55795385e-13 L3631.02311,120 L3601,120 L3670.28203,2.7000624e-13 L3700.30514,2.55795385e-13 Z M3760.30514,1.88293825e-13 L3691.02311,120 L3661,120 L3730.28203,2.48689958e-13 L3760.30514,2.55795385e-13 Z M3820.30514,2.32702746e-13 L3751.02311,120 L3721,120 L3790.28203,2.27373675e-13 L3820.30514,2.55795385e-13 Z M3880.30514,2.25597319e-13 L3811.02311,120 L3781,120 L3850.28203,3.01980663e-13 L3880.30514,2.55795385e-13 Z M3940.30514,2.45137244e-13 L3871.02311,120 L3841,120 L3910.28203,2.45137244e-13 L3940.30514,2.55795385e-13 Z M4000.30514,2.25597319e-13 L3931.02311,120 L3901,120 L3970.28203,2.38031816e-13 L4000.30514,2.55795385e-13 Z M4060.30514,2.91322522e-13 L3991.02311,120 L3961,120 L4030.28203,2.13162821e-13 L4060.30514,2.55795385e-13 Z M4120.30514,2.87769808e-13 L4051.02311,120 L4021,120 L4090.28203,2.98427949e-13 L4120.30514,2.55795385e-13 Z M4180.30514,1.75859327e-13 L4111.02311,120 L4081,120 L4150.28203,1.81188398e-13 L4180.30514,2.55795385e-13 Z M4240.30514,1.98951966e-13 L4171.02311,120 L4141,120 L4210.28203,2.52242671e-13 L4240.30514,2.55795385e-13 Z M4300.30514,1.97175609e-13 L4231.02311,120 L4201,120 L4270.28203,2.55795385e-13 L4300.30514,2.55795385e-13 Z M4360.30514,2.94875235e-13 L4291.02311,120 L4261,120 L4330.28203,2.27373675e-13 L4360.30514,2.55795385e-13 Z M4420.30514,2.43360887e-13 L4351.02311,120 L4321,120 L4390.28203,2.30926389e-13 L4420.30514,2.55795385e-13 Z M4480.30514,4.40536496e-13 L4411.02311,120 L4381,120 L4450.28203,3.30402372e-13 L4480.30514,2.55795385e-13 Z M4540.30514,2.38031816e-13 L4471.02311,120 L4441,120 L4510.28203,4.29878355e-13 L4540.30514,2.55795385e-13 Z M4600.30514,2.84217094e-13 L4531.02311,120 L4501,120 L4570.28203,3.69482223e-13 L4600.30514,2.55795385e-13 Z M4660.30514,3.12638804e-13 L4591.02311,120 L4561,120 L4630.28203,3.69482223e-13 L4660.30514,2.55795385e-13 Z M4720.30514,3.41060513e-13 L4651.02311,120 L4621,120 L4690.28203,4.29878355e-13 L4720.30514,2.55795385e-13 Z M4780.30514,1.47437618e-13 L4711.02311,120 L4681,120 L4750.28203,4.08562073e-13 L4780.30514,2.55795385e-13 Z M4840.30514,3.19744231e-13 L4771.02311,120 L4741,120 L4810.28203,3.69482223e-13 L4840.30514,2.55795385e-13 Z M4900.30514,2.68229883e-13 L4831.02311,120 L4801,120 L4870.28203,3.12638804e-13 L4900.30514,2.55795385e-13 Z M4961.30514,4.40536496e-13 L4892.02311,120 L4862,120 L4931.28203,4.54747351e-13 L4961.30514,2.55795385e-13 Z M5021.30514,2.77111667e-13 L4952.02311,120 L4922,120 L4991.28203,3.30402372e-13 L5021.30514,2.55795385e-13 Z M5081.30514,3.30402372e-13 L5012.02311,120 L4982,120 L5051.28203,3.69482223e-13 L5081.30514,2.55795385e-13 Z M5141.30514,2.87769808e-13 L5072.02311,120 L5042,120 L5111.28203,3.01980663e-13 L5141.30514,2.55795385e-13 Z M5201.30514,3.44613227e-13 L5132.02311,120 L5102,120 L5171.28203,3.7658765e-13 L5201.30514,2.55795385e-13 Z M5261.30514,3.19744231e-13 L5192.02311,120 L5162,120 L5231.28203,3.30402372e-13 L5261.30514,2.55795385e-13 Z M5321.30514,1.47437618e-13 L5252.02311,120 L5222,120 L5291.28203,2.80664381e-13 L5321.30514,2.55795385e-13 Z M5381.30514,1.52766688e-13 L5312.02311,120 L5282,120 L5351.28203,4.72510919e-13 L5381.30514,2.55795385e-13 Z M5441.30514,2.66453526e-13 L5372.02311,120 L5342,120 L5411.28203,1.91846539e-13 L5441.30514,2.55795385e-13 Z M5501.30514,2.91322522e-13 L5432.02311,120 L5402,120 L5471.28203,3.83693077e-13 L5501.30514,2.55795385e-13 Z M5561.30514,3.21520588e-13 L5492.02311,120 L5462,120 L5531.28203,3.58824082e-13 L5561.30514,2.55795385e-13 Z M5621.30514,1.52766688e-13 L5552.02311,120 L5522,120 L5591.28203,3.83693077e-13 L5621.30514,2.55795385e-13 Z M5681.30514,1.24344979e-13 L5612.02311,120 L5582,120 L5651.28203,2.80664381e-13 L5681.30514,2.55795385e-13 Z M5741.30514,2.91322522e-13 L5672.02311,120 L5642,120 L5711.28203,3.48165941e-13 L5741.30514,2.55795385e-13 Z M5801.30514,1.24344979e-13 L5732.02311,120 L5702,120 L5771.28203,3.7658765e-13 L5801.30514,2.55795385e-13 Z M5861.30514,1.52766688e-13 L5792.02311,120 L5762,120 L5831.28203,1.49213975e-13 L5861.30514,2.55795385e-13 Z M5921.30514,1.24344979e-13 L5852.02311,120 L5822,120 L5891.28203,-1.77635684e-14 L5921.30514,2.55795385e-13 Z M5981.30514,2.57571742e-13 L5912.02311,120 L5882,120 L5951.28203,1.91846539e-13 L5981.30514,2.55795385e-13 Z M6041.30514,3.99680289e-13 L5972.02311,120 L5942,120 L6011.28203,2.80664381e-13 L6041.30514,2.55795385e-13 Z M6101.30514,4.19220214e-13 L6032.02311,120 L6002,120 L6071.28203,2.80664381e-13 L6101.30514,2.55795385e-13 Z M6161.30514,3.21520588e-13 L6092.02311,120 L6062,120 L6131.28203,1.91846539e-13 L6161.30514,2.55795385e-13 Z M6221.30514,3.19744231e-13 L6152.02311,120 L6122,120 L6191.28203,3.37507799e-13 L6221.30514,2.55795385e-13 Z M6281.30514,3.21520588e-13 L6212.02311,120 L6182,120 L6251.28203,7.46069873e-14 L6281.30514,2.55795385e-13 Z M6341.30514,2.0250468e-13 L6272.02311,120 L6242,120 L6311.28203,3.48165941e-13 L6341.30514,2.55795385e-13 Z M6401.30514,4.06785716e-13 L6332.02311,120 L6302,120 L6371.28203,2.80664381e-13 L6401.30514,2.55795385e-13 Z M6461.30514,1.24344979e-13 L6392.02311,120 L6362,120 L6431.28203,4.156675e-13 L6461.30514,2.55795385e-13 Z M6521.30514,3.19744231e-13 L6452.02311,120 L6422,120 L6491.28203,7.46069873e-14 L6521.30514,2.55795385e-13 Z" id="Stripes"></path>
                </g>
            </g>
        </g>
    </g>
</svg>
